X: 35865
T: Sand Worms
R: reel
M: 4/4
K: Eminor
FGEB- BB-BA|BcAB- BAGE|F2 DA Ad-dd|d3 B BAFD|
FGEB- BB-BA|BcAB- BAGE|FDDf gfed|e2 e2- edBA:|
Bded e2 ef|gfeb- bege|dBde z e-e2|f3 g-g2 f2|
Bded e2 ef|gfeb- bege|dBdf edBd|e2 e2- edBA|
Bded e2 ef|gfeb- bege|dBde z e-e2|f3 g-g2 f2|
Bded e2 ef|gfeb agef|gfga gedB|ABAG EDDE||

